!!!OTL: 776. Der Gottesacker.
!!!COM: Friedr. Burchard Beneken
!!!ODT: 1786
!!!ARE: Europa, Mitteleuropa, Deutschland
!!!SCT: B0776
!!!TXL: @@DE
!!!YEM: Copyright 1995, estate of Helmut Schaffrath.
**kern	**text
*ICvox	*
*Ivox	*
*clefG2	*
*M3/4	*
*k[b-e-]	*
*B-:	*
=1	=1
!LO:TX:a:t=Feierlich.	!
{4b-	Wie
4cc	ſie
4b-	ſo
=2	=2
8b-L	ſanft
8aJ	.
4a	ruhn,
4r}	.
=3	=3
{4cc	al-
4b-	-le
4a	die
=4	=4
8.a	Se-
16b-	-li-
4b-	-gen,
4r}	.
=5	=5
{4ff	ʒu
4ee-	de-
4dd	-ren
=6	=6
(4dd	Wohn-
4cc)	.
4b-}	-platʒ
=7	=7
{4cc	jetʒt
8.ee-	mei-
16cc	-ne
8.dd	See-
16b-	-le
=8	=8
(4dd	ſchleicht!
4cc)	.
4r}	.
=9	=9
{4ff	Wie
4ee-	ſie
4dd	ſo
=10	=10
8ddL^	ſanft
8ee-J	.
4ee-	ruhn
4r}	.
=11	=11
{(4ee-	in
4dd)	.
4cc	den
=12	=12
8ccL^	Grä-
8ddJ	.
4dd	-bern,
4r}	.
=13	=13
{4g	tief
4g	ʒur
4ff	Ver-
=14	=14
(4ff	-we-
4ee-)	.
8dd}	-ſung
{8b-	bin-
=15	=15
(8.gL	-ab-
16ccJ	.
4b-/)	.
4a	-ge-
=16	=16
8aL^	-ſen-
8b-J	.
4b-	-ket,
4r}	.
==	==
!!!AGN: Trost - Lied, Tod, Begraebnis - Gesang, religioes
!!!ONB: ESAC (Essen Associative Code) Database: BOEHME
!!!AMT: simple triple
!!!AIN: vox
!!!EED: Helmut Schaffrath
!!!EEV: 1.0
!!!GTL: Religioese Lieder
!!@@COMMENT:"Gedicht von Auguſt Cornelius Stockmann 1779. Ʒuerſt im Leipʒiger Muſenalmanach
!!auf das Jahr 1780, S. 214. Die weit verbreitete Melodie iſt vom Paſtor Friedrich Burchard
!!Beneken komponirt und erſchien in "Lieder und Geſänge für fühlende Seelen" von F. B. Beneken.
!!Hannover 1787. Das Lied wurde bald und bis auf die Neuʒeit als Begräbnißgeſang gebraucht
!!und iſt in vielen Sammlungen gedruckt, gut bei Erk, Volksl. 2. Bd. 4/5 Heft Nr. 85."
!!@@END:
!!!Text: A. C. Stockmann
!!!URL-scan: https://archive.org/details/BoehmeVtLieder1895/page/n619/mode/2up
!!!ENC: Anna Maria Matuszewska
!!!EEV: 2024/19/07
*-	*-
